assets/calendar.svg

<svg width="21" height="20" viewBox="0 0 21 20" fill="none" xmlns="http://www.w3.org/2000/svg">
<path d="M7.43945 1.66797V4.16797" stroke="#A8ACB6" stroke-width="1.5" stroke-miterlimit="10" stroke-linecap="round" stroke-linejoin="round"/>
<path d="M14.1074 1.66797V4.16797" stroke="#A8ACB6" stroke-width="1.5" stroke-miterlimit="10" stroke-linecap="round" stroke-linejoin="round"/>
<path d="M3.68945 7.57812H17.8561" stroke="#A8ACB6" stroke-width="1.5" stroke-miterlimit="10" stroke-linecap="round" stroke-linejoin="round"/>
<path d="M18.2734 7.08464V14.168C18.2734 16.668 17.0234 18.3346 14.1068 18.3346H7.4401C4.52344 18.3346 3.27344 16.668 3.27344 14.168V7.08464C3.27344 4.58464 4.52344 2.91797 7.4401 2.91797H14.1068C17.0234 2.91797 18.2734 4.58464 18.2734 7.08464Z" stroke="#A8ACB6" stroke-width="1.5" stroke-miterlimit="10" stroke-linecap="round" stroke-linejoin="round"/>
<path d="M10.7695 11.4167H10.777" stroke="#A8ACB6" stroke-width="1.5" stroke-linecap="round" stroke-linejoin="round"/>
<path d="M7.68553 11.4167H7.69301" stroke="#A8ACB6" stroke-width="1.5" stroke-linecap="round" stroke-linejoin="round"/>
<path d="M7.68553 13.9167H7.69301" stroke="#A8ACB6" stroke-width="1.5" stroke-linecap="round" stroke-linejoin="round"/>
</svg>

<svg xmlns="http://www.w3.org/2000/svg" fill="none" viewBox="0 0 21 20"><path stroke="#A8ACB6" stroke-linecap="round" stroke-linejoin="round" stroke-miterlimit="10" stroke-width="1.5" d="M7.44 1.668v2.5M14.107 1.668v2.5M3.69 7.578h14.166M18.273 7.085v7.083c0 2.5-1.25 4.167-4.166 4.167H7.44c-2.917 0-4.167-1.667-4.167-4.167V7.085c0-2.5 1.25-4.167 4.167-4.167h6.667c2.916 0 4.166 1.667 4.166 4.167Z"/><path stroke="#A8ACB6" stroke-linecap="round" stroke-linejoin="round" stroke-width="1.5" d="M10.77 11.417h.007M7.686 11.417h.007M7.686 13.917h.007"/></svg>
